assets/icons/qvision/more.svg

<svg xmlns="http://www.w3.org/2000/svg" height="24" viewBox="0 0 24 24" width="24"><path d="M0 0h24v24H0z" fill="none"/><path d="M22 3H7c-.69 0-1.23.35-1.59.88L0 12l5.41 8.11c.36.53.97.89 1.66.89H22c1.1 0 2-.9 2-2V5c0-1.1-.9-2-2-2zM9 13.5c-.83 0-1.5-.67-1.5-1.5s.67-1.5 1.5-1.5 1.5.67 1.5 1.5-.67 1.5-1.5 1.5zm5 0c-.83 0-1.5-.67-1.5-1.5s.67-1.5 1.5-1.5 1.5.67 1.5 1.5-.67 1.5-1.5 1.5zm5 0c-.83 0-1.5-.67-1.5-1.5s.67-1.5 1.5-1.5 1.5.67 1.5 1.5-.67 1.5-1.5 1.5z"/></svg>

<svg width="24" height="24" viewBox="0 0 24 24" fill="none" xmlns="http://www.w3.org/2000/svg">
<g clip-path="url(#clip0_147_5971)">
<path d="M22 3H7C6.31 3 5.77 3.35 5.41 3.88L0 12L5.41 20.11C5.77 20.64 6.38 21 7.07 21H22C23.1 21 24 20.1 24 19V5C24 3.9 23.1 3 22 3ZM9 13.5C8.17 13.5 7.5 12.83 7.5 12C7.5 11.17 8.17 10.5 9 10.5C9.83 10.5 10.5 11.17 10.5 12C10.5 12.83 9.83 13.5 9 13.5ZM14 13.5C13.17 13.5 12.5 12.83 12.5 12C12.5 11.17 13.17 10.5 14 10.5C14.83 10.5 15.5 11.17 15.5 12C15.5 12.83 14.83 13.5 14 13.5ZM19 13.5C18.17 13.5 17.5 12.83 17.5 12C17.5 11.17 18.17 10.5 19 10.5C19.83 10.5 20.5 11.17 20.5 12C20.5 12.83 19.83 13.5 19 13.5Z" fill="#323232"/>
</g>
<defs>
<clipPath id="clip0_147_5971">
<rect width="24" height="24" fill="white"/>
</clipPath>
</defs>
</svg>
